X: 36012
T: Saw Na Ye My Peggie
R: three-two
M: 3/2
K: Eminor
e3g e2d2 B2AG|AB d2 d3c B2AG|E2e2 eged B2AG|ABde dBAG E4|
DEG2 G3A B2AG|E2A2 A3B cBAG|DEG2 G3A B2AG|ABge dBAGE4:|
edeg eged BdB/A/G|dBde dedB ABcd|edeg dege dBAG|bage dBAG E4|
deg2 g3a b2ag|e2a2 a3b c'bag|deg2 g3a b2ag|a2ga b2age4|
e4g4 dBAG|d3e deg2 dBAG|edeg dege dBAG|bage dBAG E4|
DEGA BdGd BGdB|AGAB ABcd edef|gabG BdGd BABG|ABge dBAG E4|
edeg eged BdB/A/G|dBde g/e/d e/d/B d/B/A B/A/G|edef gage dBAG|ABge dBAG E4|
dega g3a b2ag|e2ab a3b c'bag|dega g3a b2ag|a2ga b2ag e4|
edeg eged BdB/A/G|dBde dgBg ABAG|edef gfga b2G2|Agfe dBAG E4|
DEGA BdGd BGdB|AGAB cBcd edef|gabG BdGd BABG|A2ge dBAG E4||

